Origami/16x16/apps/xhydra.svg

<svg width="16" height="16" version="1.1" viewBox="0 0 16 16" xmlns="http://www.w3.org/2000/svg">
 <rect transform="matrix(0,-1,-1,0,0,0)" x="-16" y="-16" width="16" height="16" rx="1.2" ry="1.2" style="fill:#008366"/>
 <path d="m7.4672931 2.0048797c-0.2002682 0.0170859-0.2753477 0.0490768-0.3506642 0.1475842-0.0809396 0.1058613-0.1503395 0.130441-0.4458119 0.1586927-0.2251016 0.0215241-0.3832623 0.0638819-0.4435096 0.1190195-0.1161239 0.106275-0.2255915 0.3644168-0.2255915 0.5324142 0 0.1191399 0.011342 0.1244049 0.1887603 0.095216 0.1046353-0.017217 0.2665325-0.00469 0.3644762 0.028564 0.14355 0.048742 0.1656633 0.073153 0.1197014 0.1301282-0.032789 0.040646-0.1449097 0.029356-0.2677941 0.029356-0.2463267 0-0.2720775 0.070932-0.1005185 0.2761255l0.1104938 0.1325076 0.1902948-0.1047374c0.2166515-0.1194714 0.3693615-0.091697 0.5217762-0.00317 0.058047 0.033715 0.3195098 0.073893 0.581627 0.088868 0.4455891 0.02546 0.3272328 0.036067 0.4350693 0.1650404 0.069905 0.083608 0.1660278 0.2005116 0.1657407 0.296755-9.822e-4 0.3244522-0.9862355 0.8991247-1.6407633 1.6996001-0.3313709 0.4052601-0.3966457 0.8079461-0.3974707 1.0037313-2.593e-4 0.0599031-0.0211677 0.121462-0.0460391 0.1372693-0.0477058 0.0303309-0.0775067-0.1561276-0.1227708-0.7680726-0.0448232-0.6059902-0.1551677-0.8881579-0.4089804-1.1576635-0.1489264-0.1581345-0.287144-0.2524024-0.4258613-0.2904074-0.2425987-0.0664622-0.2573183-0.1173905-0.0598509-0.2015398 0.0797257-0.033975 0.1450233-0.0812316 0.1450233-0.1047374 0-0.060284-0.2209786-0.1097985-0.363709-0.081726-0.1463963 0.0287912-0.1500397 0.0021126-0.018414-0.1420302 0.2589549-0.2835831-0.1817882-0.2179512-0.6391754 0.0952152-0.4104825 0.2810526-0.6609343 0.5139438-0.6990266 0.7228453-0.0240395 0.1318207-0.1008701 0.2469387-0.273165 0.4102208-0.3194344 0.3027241-0.3917526 0.456019-0.3506642 0.737921 0.0599185 0.4110723 0.1057695 0.4447381 0.2923479 0.2166155 0.1169316-0.1429671 0.3883405-0.2916525 0.4381387-0.2404195 0.048625 0.050025-0.07687 0.2284017-0.2232897 0.3173854-0.1850658 0.1124659-0.1830151 0.1916252 0.0061405 0.2594626 0.1796351 0.0644249 0.2130508 0.0473135 0.3146006-0.1594861 0.1170923-0.2384484 0.254901-0.3728894 0.4481136-0.4371985 0.0957487-0.0318705 0.2762132-0.1552399 0.4013071-0.2745382 0.1250943-0.1192975 0.2511483-0.2166155 0.2800712-0.2166155 0.09928 0 0.2827768 0.2372722 0.3322486 0.4292635 0.02723 0.1056701 0.073611 0.525788 0.1028207 0.9339069 0.090059 1.2579349 0.2131082 1.77524 0.6583586 2.7723611 0.1427465 0.3196771 0.2593533 0.6131701 0.2593533 0.6522271 0 0.05267-0.098568 0.0793-0.3821242 0.104737-0.6709162 0.06021-0.9524575 0.294452-1.0013497 0.833931-0.017628 0.194497-0.00102 0.307557 0.063688 0.434024 0.1335543 0.260981 0.2136232 0.256105 0.1780177-0.01111-0.030479-0.228768 0.050322-0.374822 0.1104938-0.199953 0.044439 0.129149 0.2155884 0.313418 0.2908133 0.313418 0.076597 0 0.077273-0.0072 0.016882-0.170595-0.052888-0.14311-0.020708-0.157529 0.1143305-0.05237 0.1291844 0.100599 0.1726803 0.05146 0.1396516-0.157899-0.052275-0.331408 0.1876595-0.393679 0.7995455-0.207094 0.2974477 0.09071 0.3797407 0.09883 0.5110336 0.04999 0.2505633-0.09321 0.4412271-0.07085 0.6046463 0.07062 0.164551 0.142447 0.03108 0.288539-0.083637 0.457035-0.1168284 0.171599-0.2996438 0.243988-0.7573426 0.301516-0.2318759 0.02915-0.4725873 0.08766-0.5355882 0.130128-0.1254561 0.08457-0.2263588 0.274187-0.2263588 0.426089 0 0.130746 0.057912 0.122398 0.1841563-0.02698 0.057767-0.06835 0.1484785-0.12378 0.2018046-0.12378 0.1212214 0 0.12172 0.02668 7.858e-4 0.184877-0.087066 0.113876-0.136955 0.411014-0.069058 0.411014 0.015074 0 0.098735-0.07807 0.1864584-0.173769 0.087723-0.09569 0.205766-0.173768 0.2624225-0.173768 0.120216 0 0.1268488 0.03772 0.029159 0.170595-0.072806 0.09903-0.099506 0.427121-0.034529 0.423709 0.01993-1e-3 0.079923-0.07327 0.1335134-0.161074 0.090964-0.14904 0.2048576-0.224927 0.5877656-0.391177 0.084587-0.03673 0.4071466-0.342648 0.7166749-0.679205 0.5529372-0.601213 0.720069-0.61504 0.7043975-0.819647l-0.016115-0.208682 0.3867282-0.0603c0.4960475-0.181897 0.9249863-0.196811 1.2138963-0.04285 0.383325 0.20428 0.745448 0.158623 0.692888 0.491491-0.03868 0.24497-0.16958 0.539985-0.500291 0.57288-0.654525 0.0651-0.968781 0.02223-1.1921149 0.129982-0.4717418 0.227578-0.7221747 1.156423-0.613087 1.697028 0.1022192 0.506574 0.5208601 0.842064 1.1617189 0.992623 0.201604 0.04739 0.735189 0.06315 1.073948 0.0484 0.848426-0.03693 1.390935-0.251554 1.8454-0.731574 0.166276-0.175626 0.380564-0.537805 0.458856-0.742682l0.421233 0.26104v-1.21876l-0.982167 0.60938 0.458856 0.284854c-0.06776 0.05795-0.156869 0.142693-0.257818 0.24994-0.446348 0.47417-0.752287 0.642374-1.31058 0.719672-0.458126 0.06343-1.13495-0.0031-1.447165-0.145203-0.255993-0.116499-0.454252-0.368084-0.454252-0.555426 0.205653-0.804274 0.546192-0.755172 1.307513-0.831364 0.480608-0.150293 1.045855-0.608913 1.045855-1.149126 0-0.137848 0.02106-0.307218 0.04681-0.376894 0.03822-0.103401 0.01616-0.19236-0.119702-0.484013-0.113115-0.242794-0.156504-0.395995-0.136586-0.477648 0.02413-0.0989-0.02082-0.172571-0.253982-0.4149807-0.252305-0.2623048-0.277078-0.3863506-0.224057-0.4736979 0.03275-0.053941 0.05985-0.1093406 0.05985-0.1229867 0-0.013646-0.125647-0.089607-0.278536-0.1690079-0.152888-0.079401-0.331208-0.1890304-0.396703-0.2435931-0.103067-0.085862-0.110591-0.1104018-0.05371-0.1809095 0.03614-0.044806 0.05314-0.094297 0.0376-0.1102916-0.01555-0.015998-0.197288-0.061482-0.40361-0.1015634-0.465611-0.090448-0.537857-0.1296915-0.557072-0.3015159-0.0084-0.075196-0.03223-0.134946-0.05295-0.1325085-0.02072 0.0024-0.2519722 0.04494-0.5141037 0.094423-0.515277 0.097267-0.63227 0.084025-0.63227-0.072205 0-0.1287876 9.822e-4 -0.1294347-0.321506 0.047608-0.5266075 0.2891062-0.9541706 0.2244444-0.8217965-0.2301059 0.0332954-0.1143306 0.1233562-0.3023524 0.2002697-0.4173615 0.3075687-0.4599116 0.7837075-0.605963 1.861513-0.656988 0.6006275-0.0284336 0.8710445-0.0560741 1.0473885-0.1380623 0.278169-0.1293324 0.532158-0.357676 0.651454-0.5855764 0.05103-0.09749 0.109149-0.1769424 0.129676-0.1769424 0.100819 0 0.230962-0.2120874 0.230962-0.376895 0-0.223057 0.09939-0.2068028 0.158068 0.026183 0.05822 0.2311577 0.157259 0.1173154 0.151162-0.1737683-0.0052-0.2468672 0.03072-0.27501 0.138884-0.1094979 0.116995 0.1790241 0.15501 0.059622 0.08824-0.2745387-0.064289-0.3217709-0.483448-1.1086222-0.656821-1.3346043-0.054933-0.0716021-0.160906-0.1429666-0.234799-0.1586927-0.101626-0.021624-0.18145-0.1087369-0.327645-0.3586457-0.109951-0.1879531-0.252522-0.363075-0.331481-0.4054595-0.124618-0.066891-0.160762-0.065885-0.350664 0.00873-0.230834 0.090696-0.251608 0.1279621-0.131979 0.2301043 0.09627 0.082202 0.258586 0.4605316 0.258586 0.6022389 0 0.1012159-0.0017 0.101584-0.100519 0.00953-0.05535-0.051528-0.210741-0.1727373-0.250145-0.2689844-0.06844-0.1671647-0.07496-0.1707296-0.141187-0.078553-0.122259 0.1701673-0.08797 0.4054103 0.07674 0.5260663 0.161213 0.1181011 0.306417 0.3775918 0.360639 0.6450856 0.0194 0.095692 0.07632 0.2440526 0.126607 0.3292874 0.188519 0.3196109 0.152188 0.8405799-0.138119 0.9823079-0.101027 0.049321-0.427068 0.093636-0.9276875 0.1261608-1.1515056 0.0748129-1.5647452 0.2277193-2.1170349 0.7855198-0.2639538 0.2665883-0.281414 0.2766329-0.2501457 0.1412364 0.0501525-0.2171688 0.0719472-0.5078967 0.5493997-1.1497286 0.6127193-0.823668 1.1915847-1.021556 1.1907204-1.6123178-0.0016107-0.5050168 0.0383271-1.0796381-0.4822487-1.5139285-0.1072296-0.0764509-0.1832006-0.158539-0.1688098-0.1824966 0.014391-0.023957 0.1140402-0.043641 0.2209875-0.043641 0.226637 0 0.2309023-0.076526 0.012277-0.2078874-0.1822088-0.1094812-0.7868943-0.2065123-1.1149129-0.1785296z" style="fill:#badc86"/>
</svg>

<svg xmlns="http://www.w3.org/2000/svg" width="16" height="16" version="1.1" viewBox="0 0 16 16">
 <rect style="fill:#008366" width="16" height="16" x="-16" y="-16" rx="1.2" ry="1.2" transform="matrix(0,-1,-1,0,0,0)"/>
 <path style="fill:#badc86" d="M 7.4672931,2.0048797 C 7.2670249,2.0219656 7.1919454,2.0539565 7.1166289,2.1524639 7.0356893,2.2583252 6.9662894,2.2829049 6.670817,2.3111566 6.4457154,2.3326807 6.2875547,2.3750385 6.2273074,2.4301761 6.1111835,2.5364511 6.0017159,2.7945929 6.0017159,2.9625903 c 0,0.1191399 0.011342,0.1244049 0.1887603,0.095216 0.1046353,-0.017217 0.2665325,-0.00469 0.3644762,0.028564 0.14355,0.048742 0.1656633,0.073153 0.1197014,0.1301282 -0.032789,0.040646 -0.1449097,0.029356 -0.2677941,0.029356 -0.2463267,0 -0.2720775,0.070932 -0.1005185,0.2761255 L 6.416835,3.6544876 6.6071298,3.5497502 c 0.2166515,-0.1194714 0.3693615,-0.091697 0.5217762,-0.00317 0.058047,0.033715 0.3195098,0.073893 0.581627,0.088868 0.4455891,0.02546 0.3272328,0.036067 0.4350693,0.1650404 0.069905,0.083608 0.1660278,0.2005116 0.1657407,0.296755 C 8.3103608,4.4216958 7.3251075,4.9963683 6.6705797,5.7968437 6.3392088,6.2021038 6.273934,6.6047898 6.273109,6.800575 6.2728497,6.8604781 6.2519413,6.922037 6.2270699,6.9378443 6.1793641,6.9681752 6.1495632,6.7817167 6.1042991,6.1697717 6.0594759,5.5637815 5.9491314,5.2816138 5.6953187,5.0121082 5.5463923,4.8539737 5.4081747,4.7597058 5.2694574,4.7217008 5.0268587,4.6552386 5.0121391,4.6043103 5.2096065,4.520161 5.2893322,4.486186 5.3546298,4.4389294 5.3546298,4.4154236 c 0,-0.060284 -0.2209786,-0.1097985 -0.363709,-0.081726 C 4.8445245,4.3624888 4.8408811,4.3358102 4.9725068,4.1916674 5.2314617,3.9080843 4.7907186,3.9737162 4.3333314,4.2868826 3.9228489,4.5679352 3.6723971,4.8008264 3.6343048,5.0097279 3.6102653,5.1415486 3.5334347,5.2566666 3.3611398,5.4199487 3.0417054,5.7226728 2.9693872,5.8759677 3.0104756,6.1578697 3.0703941,6.568942 3.1162451,6.6026078 3.3028235,6.3744852 3.4197551,6.2315181 3.691164,6.0828327 3.7409622,6.1340657 3.7895872,6.1840907 3.6640922,6.3624674 3.5176725,6.4514511 3.3326067,6.563917 3.3346574,6.6430763 3.523813,6.7109137 3.7034481,6.7753386 3.7368638,6.7582272 3.8384136,6.5514276 3.9555059,6.3129792 4.0933146,6.1785382 4.2865272,6.1142291 4.3822759,6.0823586 4.5627404,5.9589892 4.6878343,5.8396909 4.8129286,5.7203934 4.9389826,5.6230754 4.9679055,5.6230754 c 0.09928,0 0.2827768,0.2372722 0.3322486,0.4292635 0.02723,0.1056701 0.073611,0.525788 0.1028207,0.9339069 0.090059,1.2579349 0.2131082,1.77524 0.6583586,2.7723611 0.1427465,0.3196771 0.2593533,0.6131701 0.2593533,0.6522271 0,0.05267 -0.098568,0.0793 -0.3821242,0.104737 -0.6709162,0.06021 -0.9524575,0.294452 -1.0013497,0.833931 -0.017628,0.194497 -0.00102,0.307557 0.063688,0.434024 0.1335543,0.260981 0.2136232,0.256105 0.1780177,-0.01111 -0.030479,-0.228768 0.050322,-0.374822 0.1104938,-0.199953 0.044439,0.129149 0.2155884,0.313418 0.2908133,0.313418 0.076597,0 0.077273,-0.0072 0.016882,-0.170595 -0.052888,-0.14311 -0.020708,-0.157529 0.1143305,-0.05237 0.1291844,0.100599 0.1726803,0.05146 0.1396516,-0.157899 -0.052275,-0.331408 0.1876595,-0.393679 0.7995455,-0.207094 0.2974477,0.09071 0.3797407,0.09883 0.5110336,0.04999 0.2505633,-0.09321 0.4412271,-0.07085 0.6046463,0.07062 0.164551,0.142447 0.03108,0.288539 -0.083637,0.457035 -0.1168284,0.171599 -0.2996438,0.243988 -0.7573426,0.301516 -0.2318759,0.02915 -0.4725873,0.08766 -0.5355882,0.130128 -0.1254561,0.08457 -0.2263588,0.274187 -0.2263588,0.426089 0,0.130746 0.057912,0.122398 0.1841563,-0.02698 0.057767,-0.06835 0.1484785,-0.12378 0.2018046,-0.12378 0.1212214,0 0.12172,0.02668 7.858e-4,0.184877 -0.087066,0.113876 -0.136955,0.411014 -0.069058,0.411014 0.015074,0 0.098735,-0.07807 0.1864584,-0.173769 0.087723,-0.09569 0.205766,-0.173768 0.2624225,-0.173768 0.120216,0 0.1268488,0.03772 0.029159,0.170595 -0.072806,0.09903 -0.099506,0.427121 -0.034529,0.423709 0.01993,-10e-4 0.079923,-0.07327 0.1335134,-0.161074 0.090964,-0.14904 0.2048576,-0.224927 0.5877656,-0.391177 0.084587,-0.03673 0.4071466,-0.342648 0.7166749,-0.679205 0.5529372,-0.601213 0.720069,-0.61504 0.7043975,-0.819647 l -0.016115,-0.208682 0.3867282,-0.0603 c 0.4960475,-0.181897 0.9249863,-0.196811 1.2138963,-0.04285 0.383325,0.20428 0.745448,0.158623 0.692888,0.491491 -0.03868,0.24497 -0.16958,0.539985 -0.500291,0.57288 -0.654525,0.0651 -0.968781,0.02223 -1.1921149,0.129982 -0.4717418,0.227578 -0.7221747,1.156423 -0.613087,1.697028 0.1022192,0.506574 0.5208601,0.842064 1.1617189,0.992623 0.201604,0.04739 0.735189,0.06315 1.073948,0.0484 0.848426,-0.03693 1.390935,-0.251554 1.8454,-0.731574 0.166276,-0.175626 0.380564,-0.537805 0.458856,-0.742682 L 14,13.781452 v -1.21876 l -0.982167,0.60938 0.458856,0.284854 c -0.06776,0.05795 -0.156869,0.142693 -0.257818,0.24994 -0.446348,0.47417 -0.752287,0.642374 -1.31058,0.719672 -0.458126,0.06343 -1.13495,-0.0031 -1.447165,-0.145203 -0.255993,-0.116499 -0.454252,-0.368084 -0.454252,-0.555426 0.205653,-0.804274 0.546192,-0.755172 1.307513,-0.831364 0.480608,-0.150293 1.045855,-0.608913 1.045855,-1.149126 0,-0.137848 0.02106,-0.307218 0.04681,-0.376894 0.03822,-0.103401 0.01616,-0.19236 -0.119702,-0.484013 -0.113115,-0.242794 -0.156504,-0.395995 -0.136586,-0.477648 0.02413,-0.0989 -0.02082,-0.172571 -0.253982,-0.4149807 -0.252305,-0.2623048 -0.277078,-0.3863506 -0.224057,-0.4736979 0.03275,-0.053941 0.05985,-0.1093406 0.05985,-0.1229867 0,-0.013646 -0.125647,-0.089607 -0.278536,-0.1690079 -0.152888,-0.079401 -0.331208,-0.1890304 -0.396703,-0.2435931 -0.103067,-0.085862 -0.110591,-0.1104018 -0.05371,-0.1809095 0.03614,-0.044806 0.05314,-0.094297 0.0376,-0.1102916 -0.01555,-0.015998 -0.197288,-0.061482 -0.40361,-0.1015634 -0.465611,-0.090448 -0.537857,-0.1296915 -0.557072,-0.3015159 -0.0084,-0.075196 -0.03223,-0.134946 -0.05295,-0.1325085 -0.02072,0.0024 -0.2519722,0.04494 -0.5141037,0.094423 -0.515277,0.097267 -0.63227,0.084025 -0.63227,-0.072205 0,-0.1287876 9.822e-4,-0.1294347 -0.321506,0.047608 C 8.0331068,8.514741 7.6055437,8.4500792 7.7379178,7.9955289 7.7712132,7.8811983 7.861274,7.6931765 7.9381875,7.5781674 8.2457562,7.1182558 8.721895,6.9722044 9.7997005,6.9211794 10.400328,6.8927458 10.670745,6.8651053 10.847089,6.7831171 c 0.278169,-0.1293324 0.532158,-0.357676 0.651454,-0.5855764 0.05103,-0.09749 0.109149,-0.1769424 0.129676,-0.1769424 0.100819,0 0.230962,-0.2120874 0.230962,-0.376895 0,-0.223057 0.09939,-0.2068028 0.158068,0.026183 0.05822,0.2311577 0.157259,0.1173154 0.151162,-0.1737683 -0.0052,-0.2468672 0.03072,-0.27501 0.138884,-0.1094979 0.116995,0.1790241 0.15501,0.059622 0.08824,-0.2745387 C 12.331246,4.7903105 11.912087,4.0034592 11.738714,3.7774771 11.683781,3.705875 11.577808,3.6345105 11.503915,3.6187844 11.402289,3.5971604 11.322465,3.5100475 11.17627,3.2601387 11.066319,3.0721856 10.923748,2.8970637 10.844789,2.8546792 c -0.124618,-0.066891 -0.160762,-0.065885 -0.350664,0.00873 -0.230834,0.090696 -0.251608,0.1279621 -0.131979,0.2301043 0.09627,0.082202 0.258586,0.4605316 0.258586,0.6022389 0,0.1012159 -0.0017,0.101584 -0.100519,0.00953 -0.05535,-0.051528 -0.210741,-0.1727373 -0.250145,-0.2689844 -0.06844,-0.1671647 -0.07496,-0.1707296 -0.141187,-0.078553 -0.122259,0.1701673 -0.08797,0.4054103 0.07674,0.5260663 0.161213,0.1181011 0.306417,0.3775918 0.360639,0.6450856 0.0194,0.095692 0.07632,0.2440526 0.126607,0.3292874 0.188519,0.3196109 0.152188,0.8405799 -0.138119,0.9823079 C 10.453721,5.8898132 10.12768,5.9341282 9.6270605,5.966653 8.4755549,6.0414659 8.0623153,6.1943723 7.5100256,6.7521728 7.2460718,7.0187611 7.2286116,7.0288057 7.2598799,6.8934092 7.3100324,6.6762404 7.3318271,6.3855125 7.8092796,5.7436806 8.4219989,4.9200126 9.0008643,4.7221246 9,4.1313628 8.9983893,3.626346 9.0383271,3.0517247 8.5177513,2.6174343 8.4105217,2.5409834 8.3345507,2.4588953 8.3489415,2.4349377 c 0.014391,-0.023957 0.1140402,-0.043641 0.2209875,-0.043641 0.226637,0 0.2309023,-0.076526 0.012277,-0.2078874 C 8.3999972,2.0739281 7.7953117,1.976897 7.4672931,2.0048797 Z"/>
</svg>
